components/Company/logos/logo-lotto24.svg

<svg height="140" viewBox="0 0 400 140" width="400" xmlns="http://www.w3.org/2000/svg"><g fill="none"><circle cx="200" cy="70" fill="#f90" r="45"/><circle cx="200.5" cy="70.5" fill="#900" r="41.5"/><path d="m8.58610271 10.9075145h-4.58912386v-10.61271681h-3.70090634v13.51156071h8.2900302zm14.06344409 2.8988439h3.7009063v-10.56358384h5.4773415v10.56358384h3.7009063v-10.56358384h2.7633434v-2.94797687h-18.4551863v2.94797687h2.8126888zm21.1691843.2456647c3.7995972 0 5.082578-1.9653179 5.082578-7.02601153 0-5.06069365-1.2829808-7.02601157-5.082578-7.02601157s-5.082578 1.96531792-5.082578 7.02601157c.0493454 5.06069363 1.2829808 7.02601153 5.082578 7.02601153zm0-11.64450865c1.1349446 0 1.2336354.98265896 1.2336354 4.61849712 0 3.63583813-.0986908 4.61849713-1.2336354 4.61849713s-1.2336354-.982659-1.2336354-4.61849713c0-3.63583816.0986908-4.61849712 1.2336354-4.61849712zm-29.5085599 11.64450865c3.7995972 0 5.0825781-1.9653179 5.0825781-7.02601153 0-5.06069365-1.2829809-7.02601157-5.0825781-7.02601157s-5.08257803 1.96531792-5.08257803 7.02601157c0 5.06069363 1.28298083 7.02601153 5.08257803 7.02601153zm0-11.64450865c1.1349446 0 1.2336355.98265896 1.2336355 4.61849712 0 3.63583813-.0986909 4.61849713-1.2336355 4.61849713s-1.2336354-.982659-1.2336354-4.61849713c0-3.63583816.0986908-4.61849712 1.2336354-4.61849712zm-6.06948639 33.01734105c-3.01007049 2.6040462-8.24068481 7.4190751-8.24068481 15.5751445h23.2416919v-6.3381503h-12.8791541c.8882175-1.9653179 3.55287-4.0780347 7.1057401-7.3208092 4.5397785-4.0780347 5.773414-6.0433527 5.773414-11.2023122 0-5.4046243-2.4179255-9.6791907-11.2507553-9.6791907-7.79657607 0-11.74420951 3.4884393-11.74420951 10.4161849v1.1300579h8.04330312c0-2.6040463 0-6.3381503 3.30614299-6.3381503 2.4672709 0 3.0100705 1.817919 3.0100705 4.5202312-.0493454 2.5549133-.0986908 3.9797687-6.36555889 9.2369942zm37.30513599-18.2774567h-9.2275932l-11.8429003 20.83237v6.3381503h13.0765357v6.6820809h8.0433032v-6.6820809h3.4048338v-6.3381503h-3.4048338zm-7.9939578 20.83237h-6.2175226l6.1188318-11.5462428h.0986908z" fill="#fff" transform="translate(176 45)"/></g></svg>

<?xml version="1.0" encoding="UTF-8"?>
<svg width="400px" height="140px" viewBox="0 0 400 140" version="1.1" xmlns="http://www.w3.org/2000/svg" xmlns:xlink="http://www.w3.org/1999/xlink">
    <title>Artboard</title>
    <g id="Artboard" stroke="none" stroke-width="1" fill="none" fill-rule="evenodd">
        <g id="lotto24" transform="translate(155.000000, 25.000000)" fill-rule="nonzero">
            <circle id="Oval" fill="#FF9900" cx="45" cy="45" r="45"></circle>
            <circle id="Oval" fill="#990000" cx="45.5" cy="45.5" r="41.5"></circle>
            <g id="Group" transform="translate(21.000000, 20.000000)" fill="#FFFFFF">
                <path d="M8.58610271,10.9075145 L3.99697885,10.9075145 L3.99697885,0.294797688 L0.296072507,0.294797688 L0.296072507,13.8063584 L8.58610271,13.8063584 L8.58610271,10.9075145 Z M22.6495468,13.8063584 L26.3504531,13.8063584 L26.3504531,3.24277456 L31.8277946,3.24277456 L31.8277946,13.8063584 L35.5287009,13.8063584 L35.5287009,3.24277456 L38.2920443,3.24277456 L38.2920443,0.294797688 L19.836858,0.294797688 L19.836858,3.24277456 L22.6495468,3.24277456 L22.6495468,13.8063584 Z M43.8187311,14.0520231 C47.6183283,14.0520231 48.9013091,12.0867052 48.9013091,7.02601157 C48.9013091,1.96531792 47.6183283,0 43.8187311,0 C40.0191339,0 38.7361531,1.96531792 38.7361531,7.02601157 C38.7854985,12.0867052 40.0191339,14.0520231 43.8187311,14.0520231 L43.8187311,14.0520231 Z M43.8187311,2.40751445 C44.9536757,2.40751445 45.0523665,3.39017341 45.0523665,7.02601157 C45.0523665,10.6618497 44.9536757,11.6445087 43.8187311,11.6445087 C42.6837865,11.6445087 42.5850957,10.6618497 42.5850957,7.02601157 C42.5850957,3.39017341 42.6837865,2.40751445 43.8187311,2.40751445 L43.8187311,2.40751445 Z M14.3101712,14.0520231 C18.1097684,14.0520231 19.3927493,12.0867052 19.3927493,7.02601157 C19.3927493,1.96531792 18.1097684,0 14.3101712,0 C10.510574,0 9.22759317,1.96531792 9.22759317,7.02601157 C9.22759317,12.0867052 10.510574,14.0520231 14.3101712,14.0520231 L14.3101712,14.0520231 Z M14.3101712,2.40751445 C15.4451158,2.40751445 15.5438067,3.39017341 15.5438067,7.02601157 C15.5438067,10.6618497 15.4451158,11.6445087 14.3101712,11.6445087 C13.1752266,11.6445087 13.0765358,10.6618497 13.0765358,7.02601157 C13.0765358,3.39017341 13.1752266,2.40751445 14.3101712,2.40751445 L14.3101712,2.40751445 Z M8.24068481,35.4248555 C5.23061432,38.0289017 0,42.8439306 0,51 L23.2416919,51 L23.2416919,44.6618497 L10.3625378,44.6618497 C11.2507553,42.6965318 13.9154078,40.583815 17.4682779,37.3410405 C22.0080564,33.2630058 23.2416919,31.2976878 23.2416919,26.1387283 C23.2416919,20.734104 20.8237664,16.4595376 11.9909366,16.4595376 C4.19436053,16.4595376 0.24672709,19.9479769 0.24672709,26.8757225 L0.24672709,28.0057804 L8.29003021,28.0057804 C8.29003021,25.4017341 8.29003021,21.6676301 11.5961732,21.6676301 C14.0634441,21.6676301 14.6062437,23.4855491 14.6062437,26.1878613 C14.5568983,28.7427746 14.5075529,30.16763 8.24068481,35.4248555 L8.24068481,35.4248555 Z M45.5458208,17.1473988 L36.3182276,17.1473988 L24.4753273,37.9797688 L24.4753273,44.3179191 L37.551863,44.3179191 L37.551863,51 L45.5951662,51 L45.5951662,44.3179191 L49,44.3179191 L49,37.9797688 L45.5951662,37.9797688 L45.5458208,17.1473988 L45.5458208,17.1473988 Z M37.551863,37.9797688 L31.3343404,37.9797688 L37.4531722,26.433526 L37.551863,26.433526 L37.551863,37.9797688 L37.551863,37.9797688 Z" id="Shape"></path>
            </g>
        </g>
    </g>
</svg>
